local/share/icons/dracula-icons-main/24/actions/zoom-original.svg

<?xml version="1.0" encoding="UTF-8"?>
<svg xmlns="http://www.w3.org/2000/svg" xmlns:xlink="http://www.w3.org/1999/xlink" width="24" height="24" viewBox="0 0 24 24">
<path fill-rule="nonzero" fill="rgb(100%, 100%, 100%)" fill-opacity="1" d="M 6 4 C 4.890625 4 4 4.890625 4 6 L 4 7 L 5 7 L 5 6 C 5 5.445312 5.445312 5 6 5 L 7 5 L 7 4 Z M 17 4 L 17 5 L 18 5 C 18.554688 5 19 5.445312 19 6 L 19 7 L 20 7 L 20 6 C 20 4.890625 19.109375 4 18 4 Z M 8 6 C 6.890625 6 6 6.890625 6 8 L 6 16 C 6 17.109375 6.890625 18 8 18 L 16 18 C 17.109375 18 18 17.109375 18 16 L 18 8 C 18 6.890625 17.109375 6 16 6 Z M 8 7 L 16 7 C 16.554688 7 17 7.445312 17 8 L 17 16 C 17 16.554688 16.554688 17 16 17 L 8 17 C 7.445312 17 7 16.554688 7 16 L 7 8 C 7 7.445312 7.445312 7 8 7 Z M 4 17 L 4 18 C 4 19.109375 4.890625 20 6 20 L 7 20 L 7 19 L 6 19 C 5.445312 19 5 18.554688 5 18 L 5 17 Z M 19 17 L 19 18 C 19 18.554688 18.554688 19 18 19 L 17 19 L 17 20 L 18 20 C 19.109375 20 20 19.109375 20 18 L 20 17 Z M 19 17 "/>
</svg>

<svg width="24" height="24" version="1.1" viewBox="0 0 24 24" xmlns="http://www.w3.org/2000/svg">
 <defs>
  <style id="current-color-scheme" type="text/css">.ColorScheme-Text {
        color:#FFFFFF;
      }</style>
 </defs>
 <path class="ColorScheme-Text" d="m6 4c-1.108 0-2 0.892-2 2v1h1v-1c0-0.554 0.446-1 1-1h1v-1zm11 0v1h1c0.554 0 1 0.446 1 1v1h1v-1c0-1.108-0.892-2-2-2zm-9 2c-1.108 0-2 0.892-2 2v8c0 1.108 0.892 2 2 2h8c1.108 0 2-0.892 2-2v-8c0-1.108-0.892-2-2-2zm0 1h8c0.554 0 1 0.446 1 1v8c0 0.554-0.446 1-1 1h-8c-0.554 0-1-0.446-1-1v-8c0-0.554 0.446-1 1-1zm-4 10v1c0 1.108 0.892 2 2 2h1v-1h-1c-0.554 0-1-0.446-1-1v-1zm15 0v1c0 0.554-0.446 1-1 1h-1v1h1c1.108 0 2-0.892 2-2v-1z" fill="currentColor"/>
</svg>
